!!!OTL: "Der Schuetze" JUCHHE FRISCH AF WENNS SCHIASSN GFRAIT
!!!ARE: Europa, Mitteleuropa, Tirol
!!!SCT: Z1298
!!!YEM: Copyright 1995, estate of Helmut Schaffrath.
**kern
*ICvox
*Ivox
*M2/4
*k[f#c#g#]
*A:
{8e
=1
8.a
16a
8.aa
16ff#
=2
8ee
16ee
16cc#
8.ee}
{16cc#
=3
16cc#
16b
8b
16b
16g#
8g#
=4
4a
8.r}
{16e
=5
8a
8a
8.aa
16ff#
=6
8ee
16ee
16cc#
8.ee}
{16cc#
=7
16cc#
16b
8b
16b
16g#
8g#
=8
4a
8r}
{8a
=9
16cc#
16b
16b
16dd
8.b
16b
=10
8cc#
16cc#
16ee
8.cc#}
{16cc#
=11
16cc#
16b
16b
16dd
8.b
16b
=12
8cc#
16cc#
16ee
8.cc#}
{16e
=13
8.a
16a
8.aa
16ff#
=14
8ee
16ee
16cc#
8.ee}
{16cc#
=15
16cc#
16b
8b
16b
16g#
8g#
=16
4a
8r}
==
!!!AGN: Jaeger - Lied
!!!ONB: ESAC (Essen Associative Code) Database: ZUCCAL
!!!AMT: simple duple
!!!AIN: vox
!!!EED: Helmut Schaffrath
!!!EEV: 1.0
*-
